icons/flutter-line.svg

<svg xmlns="http://www.w3.org/2000/svg" width="24" height="24" fill="none"><g clip-path="url(#a)"><g><path fill="#121212" d="M14.597 10.684H17.425L11.768 16.342L17.425 21.998H14.597L8.94003 16.34L14.597 10.683V10.684ZM14.403 2.00403H17.232L5.91803 13.318L4.50403 11.904L14.404 2.00403H14.403Z"/></g></g><defs><clipPath id="a"><rect width="24" height="24" fill="white"/></clipPath></defs></svg>

<svg width="24" height="24" fill="none" xmlns="http://www.w3.org/2000/svg"><g clip-path="url(#a)"><path d="M14.597 10.684h2.828l-5.657 5.658 5.657 5.656h-2.828L8.94 16.34l5.657-5.657v.001Zm-.194-8.68h2.829L5.918 13.318l-1.414-1.414 9.9-9.9h-.001Z" /></g><defs><clipPath id="a"><path fill="#fff" d="M0 0h24v24H0z"/></clipPath></defs></svg>
